X:441
L:1/8
M:4/4
K:Eb
 Be | e2 B2 c2 BG | F3 E C2 EF | G2 BG AE CE | E6 BG | G2 F2 GA B2 | e2 f2 g2 ed | d2 fe d2 c>B | 
 B6 BA | G2 F2 GA B2 | e2 f2 g2 e>d | d2 fe dB c>B | B6 Be | e2 B2 c2 BG | F3 E C2 EF | 
 G2 BG FE CE | E6 ||

